svgs/sharp-solid/hand-pointer.svg

<svg xmlns="http://www.w3.org/2000/svg" viewBox="0 0 448 512"><!--! Font Awesome Pro 6.6.0 by @fontawesome - https://fontawesome.com License - https://fontawesome.com/license (Commercial License) Copyright 2024 Fonticons, Inc. --><path d="M128 0l80 0 0 176 80 0 0 32 80 0 0 32 80 0 0 80 0 48 0 16c0 70.7-57.3 128-128 128l-16 0-64 0-.1 0-5.2 0c-5 0-9.9-.3-14.7-1c-55.3-5.6-106.2-34-140-79L24.1 357.4l-24-32 64-48 24 32L128 362.7 128 0zM240 304l0-16-32 0 0 16 0 96 0 16 32 0 0-16 0-96zm64-16l-32 0 0 16 0 96 0 16 32 0 0-16 0-96 0-16zm64 16l0-16-32 0 0 16 0 96 0 16 32 0 0-16 0-96z"/></svg>

<svg xmlns="http://www.w3.org/2000/svg" viewBox="0 0 448 512"><!--! Font Awesome Pro 6.5.2 by @fontawesome - https://fontawesome.com License - https://fontawesome.com/license (Commercial License) Copyright 2024 Fonticons, Inc. --><path d="M128 0h80V176h80v32h80v32h80v80 48 16c0 70.7-57.3 128-128 128l-16 0H240l-.1 0h-5.2c-5 0-9.9-.3-14.7-1c-55.3-5.6-106.2-34-140-79L24.1 357.4l-24-32 64-48 24 32L128 362.7V0zM240 304V288H208v16 96 16h32V400 304zm64-16H272v16 96 16h32V400 304 288zm64 16V288H336v16 96 16h32V400 304z"/></svg>
